ru/_assets/yds-icon.svg

<svg width="16" height="15" viewBox="0 0 16 15" fill="none" xmlns="http://www.w3.org/2000/svg">
<path fill-rule="evenodd" clip-rule="evenodd" d="M11 13.492C11 13.265 11.051 13.052 11.146 12.852L9.298 10.998H8V11.678C8 12.412 7.408 12.998 6.679 12.998H1.32C0.591 12.998 0 12.412 0 11.678V3.31901C0 2.58601 0.592 1.99901 1.321 1.99901H6.68C7.41 1.99901 8.001 2.58601 8.001 3.31901V3.99901H9.299L11.146 2.14601C11.0361 1.91749 10.986 1.6648 11.0004 1.41163C11.0149 1.15846 11.0934 0.913119 11.2287 0.698612C11.3639 0.484105 11.5514 0.307468 11.7736 0.185273C11.9958 0.0630771 12.2454 -0.000672222 12.499 5.34527e-06C12.7242 -8.53123e-05 12.9466 0.0505415 13.1496 0.148129C13.3525 0.245717 13.5309 0.38776 13.6715 0.563718C13.8121 0.739677 13.9112 0.945033 13.9616 1.16455C14.012 1.38407 14.0123 1.61211 13.9625 1.83175C13.9126 2.05139 13.814 2.257 13.6739 2.43332C13.5337 2.60963 13.3557 2.75213 13.153 2.85023C12.9502 2.94833 12.728 2.99952 12.5028 3C12.2776 3.00048 12.0551 2.95024 11.852 2.85301L9.86 4.85301C9.76576 4.94617 9.63851 4.99829 9.506 4.99801H8V6.99801H13.082C13.288 6.41101 13.844 5.99801 14.498 5.99801C14.8958 5.99801 15.2774 6.15604 15.5587 6.43735C15.84 6.71865 15.998 7.10018 15.998 7.49801C15.998 7.89583 15.84 8.27736 15.5587 8.55867C15.2774 8.83997 14.8958 8.998 14.498 8.998C13.844 8.998 13.288 8.58401 13.082 7.99801H8V9.998H9.506C9.638 9.998 9.766 10.051 9.86 10.144L11.853 12.144C12.0812 12.0336 12.3336 11.983 12.5867 11.9968C12.8398 12.0106 13.0853 12.0885 13.3001 12.2231C13.5148 12.3578 13.6919 12.5447 13.8147 12.7665C13.9375 12.9882 14.0019 13.2375 14.002 13.491C14.0029 13.6887 13.9647 13.8847 13.8896 14.0676C13.8146 14.2506 13.704 14.4168 13.5644 14.5569C13.4248 14.697 13.2589 14.808 13.0763 14.8837C12.8936 14.9594 12.6977 14.9983 12.5 14.998C12.3023 14.9983 12.1066 14.9595 11.924 14.8838C11.7414 14.8082 11.5755 14.6972 11.4359 14.5573C11.2963 14.4173 11.1858 14.2511 11.1106 14.0683C11.0355 13.8855 10.9972 13.6897 10.998 13.492H11ZM7 9.505V9.49201C6.99843 9.36079 6.94533 9.23544 6.85216 9.14303C6.75899 9.05061 6.63323 8.99852 6.502 8.998H1.498C1.36677 8.99852 1.24101 9.05061 1.14784 9.14303C1.05467 9.23544 1.00157 9.36079 1 9.49201V9.505C1.00183 9.63605 1.05505 9.76114 1.14819 9.85334C1.24132 9.94554 1.36694 9.99749 1.498 9.998H6.502C6.63306 9.99749 6.75868 9.94554 6.85181 9.85334C6.94495 9.76114 6.99817 9.63605 7 9.505ZM7 5.50501V5.49201C6.99817 5.36096 6.94495 5.23587 6.85181 5.14367C6.75868 5.05147 6.63306 4.99952 6.502 4.99901H1.498C1.36694 4.99952 1.24132 5.05147 1.14819 5.14367C1.05505 5.23587 1.00183 5.36096 1 5.49201V5.50601C1.00209 5.63688 1.05542 5.76171 1.14853 5.8537C1.24164 5.94569 1.36711 5.9975 1.498 5.99801H6.502C6.63289 5.9975 6.75836 5.94569 6.85147 5.8537C6.94458 5.76171 6.99791 5.63688 7 5.50601V5.50501Z" fill="black"/>
</svg>

<svg xmlns="http://www.w3.org/2000/svg" width="16" height="15" fill="none" viewBox="0 0 16 15">
    <path fill="#000" fill-rule="evenodd" d="M11 13.492c0-.227.051-.44.146-.64l-1.848-1.854H8v.68c0 .734-.592 1.32-1.321 1.32H1.32c-.729 0-1.32-.586-1.32-1.32V3.319c0-.733.592-1.32 1.321-1.32H6.68c.73 0 1.321.587 1.321 1.32v.68h1.298l1.847-1.853A1.498 1.498 0 0 1 13.671.564a1.5 1.5 0 0 1-1.819 2.289l-1.992 2a.502.502 0 0 1-.354.145H8v2h5.082a1.5 1.5 0 1 1 0 1H8v2h1.506c.132 0 .26.053.354.146l1.993 2a1.497 1.497 0 0 1 2.037 1.924 1.498 1.498 0 0 1-1.39.93 1.498 1.498 0 0 1-1.502-1.506H11ZM7 9.505v-.013a.5.5 0 0 0-.498-.494H1.498A.5.5 0 0 0 1 9.492v.013a.5.5 0 0 0 .498.493h5.004A.5.5 0 0 0 7 9.505Zm0-4v-.013a.5.5 0 0 0-.498-.493H1.498A.5.5 0 0 0 1 5.492v.014a.5.5 0 0 0 .498.492h5.004A.5.5 0 0 0 7 5.506v-.001Z" clip-rule="evenodd"/>
</svg>
